X:133
T:Engelska från Fiskebäckskil
S:Trad. e. [[!Ernst Abrahamsson]]
B: 
D:Erik Pekkari - Gubbstöt
Z:Transkription till abc av Jon Magnusson 080208 
O:Fiskebäckskil, Bohuslän
R:Engelska
M:2/4 
L:1/8 
K:D
A2|:dA FA|dc df|ed cB|A2 FA|dc df|ed cd|B2 e2|e2 A2|
dA FA|dc df|ed cB|A2 g2|fa fd|eg ec|d2 d2|[1 d2 A2:|[2 d2 fg|]
|:a2 f2|d2 ef|ga bg|e2 fg|a2 f2|d2 f2|ed cB|A3 A|
dA FA|dc df|ed cB|A2 g2|fa fd|eg ec|d2 d2|[1 d2 fg:|[2 d4|]
(:musicend:)
(:music:)
